src/images/clients/public.svg

<svg width="192" height="38" viewBox="0 0 192 38" fill="none" xmlns="http://www.w3.org/2000/svg">
<path d="M127.367 29.1554C125.972 29.1554 124.8 27.9832 124.8 26.5281C124.8 25.0931 125.992 23.9411 127.367 23.9411C128.822 23.9411 129.974 25.1133 129.974 26.5281C129.974 28.0034 128.822 29.1554 127.367 29.1554ZM140.524 29.2565C136.3 29.2565 132.197 26.0228 132.197 20.5862C132.197 15.0687 136.401 11.835 140.625 11.835C143.576 11.835 146.183 13.4316 147.658 15.4325L145.273 17.4939C143.98 15.9377 142.424 15.0687 140.625 15.0687C137.957 15.0687 135.512 16.827 135.512 20.5862C135.512 24.2038 137.795 26.043 140.544 26.043C142.727 26.043 144.465 24.8506 145.293 23.1933L147.961 24.8506C146.304 27.7003 143.555 29.2565 140.524 29.2565ZM171.87 14.7049C172.8 12.8657 174.619 11.6733 176.802 11.6733C178.843 11.6733 180.5 12.7041 181.389 14.3613C182.582 12.7041 184.259 11.6733 186.341 11.6733C189.615 11.6733 192 14.3007 192 18.1811V28.7512H188.463V18.3832C188.463 16.2207 187.271 14.8868 185.512 14.8868C183.754 14.8868 182.481 16.3419 182.481 18.3832V28.7512H179.207V18.3832C179.207 16.3622 177.913 14.8868 176.094 14.8868C174.235 14.8868 172.982 16.3419 172.982 18.3832V28.7512H169.587V11.9361H172.8V14.8868L171.87 14.7049ZM157.905 25.9419C154.792 25.9419 152.428 23.5571 152.428 20.3234C152.428 17.0897 154.813 14.907 157.905 14.907C160.815 14.907 163.018 17.1099 163.018 20.3234C163.018 23.5369 160.815 25.9419 157.905 25.9419ZM157.804 29.1554C162.856 29.1554 166.333 25.4569 166.333 20.4043C166.333 15.3112 162.856 11.6531 157.804 11.6531C152.872 11.6531 149.113 15.3112 149.113 20.4043C149.113 25.4771 152.872 29.1554 157.804 29.1554Z" fill="black"/>
<path d="M114.028 29.1554C116.938 29.1554 119.869 27.4982 121.425 24.7293L118.878 23.072C117.949 24.7293 116.372 25.9217 114.028 25.9217C111.461 25.9217 109.096 24.0017 109.096 20.4043C109.096 16.6249 111.441 14.8868 114.028 14.8868C115.948 14.8868 117.504 15.675 118.878 17.3525L121.122 15.3314C119.667 13.2295 117.12 11.6733 114.189 11.6733C109.885 11.6733 105.661 14.907 105.661 20.4245C105.661 25.9419 109.804 29.1554 114.028 29.1554ZM100.871 8.98531C102.366 8.98531 103.478 7.85352 103.478 6.39836C103.478 4.90278 102.346 3.77099 100.871 3.77099C99.4156 3.77099 98.304 4.90278 98.304 6.39836C98.304 7.85352 99.4156 8.98531 100.871 8.98531ZM99.1933 12.1988V28.7512H102.467V12.1988H99.1933ZM91.2505 3.48805V28.7512H94.8278V3.48805H91.2505ZM80.0943 29.1554C84.8438 29.1554 88.1583 25.4569 88.1583 20.4043C88.1583 15.6144 84.6619 11.6531 80.0943 11.6531C77.6084 11.6531 75.7895 12.6838 74.779 14.3411V3.48805H71.1411V28.7512H74.779V26.6493C75.7895 28.2257 77.6084 29.1554 80.0943 29.1554ZM79.7912 25.7803C76.5171 25.7803 74.3141 23.5571 74.3141 20.4245C74.3141 17.3727 76.5373 15.0687 79.7912 15.0687C82.7419 15.0687 84.8438 17.1908 84.8438 20.4245C84.8438 23.5369 82.7419 25.7803 79.7912 25.7803ZM59.2371 28.9937C60.9954 28.9937 62.4505 28.2257 63.5419 26.6695V28.7714H66.9373V12.1988H63.4408V21.7786C63.4408 24.2038 61.9857 25.76 59.6008 25.76C57.5798 25.76 56.4884 24.0017 56.4884 21.7786V12.1988H52.9314V22.3445C52.9314 26.2047 55.3162 28.9937 59.2371 28.9937ZM41.5933 25.7803C38.2181 25.7803 36.2173 23.5571 36.2173 20.4245C36.2173 17.3727 38.2383 15.0687 41.5933 15.0687C44.8067 15.0687 46.7874 17.3727 46.7874 20.4245C46.7874 23.5369 44.8067 25.7803 41.5933 25.7803ZM36.379 12.1988H32.9027V34.6729H36.379V26.6695C37.8745 28.2257 39.6733 29.1554 42.0581 29.1554C46.7874 29.1554 50.1827 25.1942 50.1827 20.4043C50.1827 15.3112 46.7874 11.6531 42.0581 11.6531C39.6733 11.6531 37.8543 12.6838 36.379 14.3411V12.1988Z" fill="black"/>
<path d="M21.9486 11.6733C21.9486 17.7567 17.0173 22.7083 10.9743 22.7083C4.93137 22.7083 0 17.7567 0 11.6733C0 5.58995 4.93137 0.638367 10.9743 0.638367C17.0173 0.638367 21.9486 5.58995 21.9486 11.6733Z" fill="black"/>
<path d="M10.9743 31.8838C10.9743 34.9356 8.48842 37.4417 5.49726 37.4417C2.4859 37.4417 0 34.9558 0 31.8838C0 28.8927 2.48589 26.4068 5.47705 26.4068C8.46821 26.4068 10.9743 28.8927 10.9743 31.8838Z" fill="black"/>
</svg>

<svg xmlns="http://www.w3.org/2000/svg" width="192" height="38" fill="none" viewBox="0 0 192 38"><path fill="#000" d="M127.367 29.155c-1.395 0-2.567-1.172-2.567-2.627 0-1.435 1.192-2.587 2.567-2.587a2.596 2.596 0 0 1 2.607 2.587c0 1.475-1.152 2.627-2.607 2.627Zm13.157.101c-4.224 0-8.327-3.233-8.327-8.67 0-5.517 4.204-8.751 8.428-8.751 2.951 0 5.558 1.597 7.033 3.597l-2.385 2.062c-1.293-1.556-2.849-2.425-4.648-2.425-2.668 0-5.113 1.758-5.113 5.517 0 3.618 2.283 5.457 5.032 5.457 2.183 0 3.921-1.192 4.749-2.85l2.668 1.658c-1.657 2.85-4.406 4.405-7.437 4.405Zm31.346-14.551c.93-1.84 2.749-3.032 4.932-3.032 2.041 0 3.698 1.031 4.587 2.688 1.193-1.657 2.87-2.688 4.952-2.688 3.274 0 5.659 2.628 5.659 6.508v10.57h-3.537V18.383c0-2.162-1.192-3.496-2.951-3.496-1.758 0-3.031 1.455-3.031 3.496v10.368h-3.274V18.383c0-2.02-1.294-3.496-3.113-3.496-1.859 0-3.112 1.455-3.112 3.496v10.368h-3.395V11.936h3.213v2.95l-.93-.181Zm-13.965 11.237c-3.113 0-5.477-2.385-5.477-5.619 0-3.233 2.385-5.416 5.477-5.416 2.91 0 5.113 2.203 5.113 5.416 0 3.214-2.203 5.619-5.113 5.619Zm-.101 3.213c5.052 0 8.529-3.698 8.529-8.75 0-5.094-3.477-8.752-8.529-8.752-4.932 0-8.691 3.658-8.691 8.751 0 5.073 3.759 8.751 8.691 8.751ZM114.028 29.155c2.91 0 5.841-1.657 7.397-4.426l-2.547-1.657c-.929 1.657-2.506 2.85-4.85 2.85-2.567 0-4.932-1.92-4.932-5.518 0-3.78 2.345-5.517 4.932-5.517 1.92 0 3.476.788 4.85 2.465l2.244-2.02c-1.455-2.103-4.002-3.659-6.933-3.659-4.304 0-8.528 3.234-8.528 8.751 0 5.518 4.143 8.731 8.367 8.731Zm-13.157-20.17c1.495 0 2.607-1.131 2.607-2.587 0-1.495-1.132-2.627-2.607-2.627-1.455 0-2.567 1.132-2.567 2.627 0 1.456 1.112 2.587 2.567 2.587ZM99.193 12.2V28.75h3.274V12.2h-3.274Zm-7.942-8.71V28.75h3.577V3.488H91.25ZM80.094 29.154c4.75 0 8.064-3.698 8.064-8.75 0-4.79-3.496-8.752-8.064-8.752-2.486 0-4.304 1.03-5.315 2.688V3.488h-3.638v25.263h3.638V26.65c1.01 1.577 2.83 2.506 5.315 2.506Zm-.303-3.375c-3.274 0-5.477-2.223-5.477-5.356 0-3.051 2.223-5.355 5.477-5.355 2.95 0 5.053 2.122 5.053 5.355 0 3.113-2.102 5.356-5.053 5.356Zm-20.554 3.214c1.758 0 3.213-.768 4.305-2.325v2.102h3.395V12.2h-3.496v9.58c0 2.425-1.455 3.981-3.84 3.981-2.021 0-3.113-1.758-3.113-3.981v-9.58h-3.557v10.146c0 3.86 2.385 6.649 6.306 6.649ZM41.593 25.78c-3.375 0-5.376-2.223-5.376-5.356 0-3.051 2.021-5.355 5.376-5.355 3.214 0 5.194 2.304 5.194 5.355 0 3.113-1.98 5.356-5.194 5.356ZM36.38 12.2h-3.476v22.474h3.476v-8.004c1.495 1.557 3.294 2.486 5.68 2.486 4.728 0 8.124-3.96 8.124-8.75 0-5.094-3.396-8.752-8.125-8.752-2.385 0-4.204 1.03-5.679 2.688V12.2ZM21.949 11.673c0 6.084-4.932 11.035-10.975 11.035C4.931 22.708 0 17.757 0 11.673 0 5.59 4.931.638 10.974.638S21.95 5.59 21.95 11.673ZM10.974 31.884c0 3.052-2.486 5.558-5.477 5.558C2.486 37.442 0 34.956 0 31.884c0-2.991 2.486-5.477 5.477-5.477s5.497 2.486 5.497 5.477Z"/></svg>
